data/pieces/fancy/whiteBishop.svg

<svg xmlns="http://www.w3.org/2000/svg" width="1000pt" height="1000pt" viewBox="0 0 1000 1000"><path d="M62 910c38-42 92-90 158-90 32 0 71 8 92 16 22 8 58 18 75 18s25-3 33-12v-4c-37-10-71-24-106-52 12-35 20-64 20-105 0-23-10-47-28-81s-36-95-36-146c0-172 153-296 197-330-16-14-18-30-18-37 0-19 11-35 36-35 23 0 33 17 33 31 0 17-8 30-20 39 15 12 34 28 47 40 13-12 21-22 31-35-11-9-24-22-24-40 0-19 13-35 33-35 22 0 33 16 33 30 0 18-11 31-20 41 52 51 136 146 136 278 0 64-17 119-39 175-13 34-25 69-25 105 0 37 6 68 16 105-26 24-54 39-108 51v3c10 10 23 14 38 14 30 0 47-4 72-14 34-14 66-20 92-20 74 0 132 51 156 80l-6 9c-16-11-33-19-58-23l-2 3c17 14 29 37 36 51l-9 8c-29-32-57-62-123-62-30 0-61 8-93 17-29 8-48 13-81 13-47 0-77-27-100-62h-4c-19 32-46 62-84 62-32 0-56-4-84-13-21-7-57-19-90-19-60 0-88 24-128 64l-7-6c9-20 15-31 30-49l-3-3c-17 5-37 12-59 29l-9-9" style="stroke-width:2;stroke-linecap:butt;stroke-linejoin:miter;stroke:#fff;stroke-opacity:1;stroke-miterlimit:10;fill-rule:nonzero;fill:#fff;fill-opacity:1"/><path d="M62 910c38-42 92-90 158-90 32 0 71 8 92 16 22 8 58 18 75 18s25-3 33-12v-4c-37-10-71-24-106-52 12-35 20-64 20-105 0-23-10-47-28-81s-36-95-36-146c0-172 153-296 197-330-16-14-18-30-18-37 0-19 11-35 36-35 23 0 33 17 33 31 0 17-8 30-20 39 15 12 34 28 47 40 13-12 21-22 31-35-11-9-24-22-24-40 0-19 13-35 33-35 22 0 33 16 33 30 0 18-11 31-20 41 52 51 136 146 136 278 0 64-17 119-39 175-13 34-25 69-25 105 0 37 6 68 16 105-26 24-54 39-108 51v3c10 10 23 14 38 14 30 0 47-4 72-14 34-14 66-20 92-20 74 0 132 51 156 80l-6 9c-16-11-33-19-58-23l-2 3c17 14 29 37 36 51l-9 8c-29-32-57-62-123-62-30 0-61 8-93 17-29 8-48 13-81 13-47 0-77-27-100-62h-4c-19 32-46 62-84 62-32 0-56-4-84-13-21-7-57-19-90-19-60 0-88 24-128 64l-7-6c9-20 15-31 30-49l-3-3c-17 5-37 12-59 29zm57-35 2 4c11-5 23-7 35-7l2 4c-6 6-15 16-19 23l4 3c33-24 63-32 93-32 34 0 65 8 90 16s54 16 86 16 52-24 70-55c-16 0-30-2-44-4-12 16-20 25-48 25-24 0-56-10-84-19-26-9-64-15-86-15-43 0-73 19-101 41m175-417c0 69 21 118 46 167 54-22 115-29 160-29 65 0 100 9 159 25 7-32 11-85 11-114 0-165-50-264-188-371-106 93-188 174-188 322m44 323c36 28 96 47 162 47s126-19 162-47c-44-24-100-42-162-42s-118 18-162 42m5-21 3 1c43-40 48-50 48-54 0-6-16-11-40-16-2 23-4 46-11 69m4-114c3 10 5 20 5 32 52-22 89-30 148-30s96 8 148 30c0-12 2-22 5-32-59-20-93-26-153-26s-94 6-153 26m1-238v-31c0-15 7-25 58-29 38-3 38-4 38-19v-89c0-9 4-20 19-20h38c15 0 19 11 19 20v89c0 15 0 16 38 19 51 4 58 14 58 29v31c0 8-5 20-19 20-6 0-23-1-38-4-14-3-23-4-33-4-6 0-6 4-6 10v107c0 7-4 19-15 19h-46c-11 0-15-12-15-19V430c0-6 0-10-6-10-10 0-19 1-33 4-15 3-32 4-38 4-14 0-19-12-19-20m16-17c0 11 1 19 11 19 6 0 17-1 32-4 14-3 30-5 38-5 12 0 15 8 15 17v111c0 12 2 15 22 15s22-3 22-15V418c0-9 3-17 15-17 8 0 24 2 38 5 15 3 26 4 32 4 10 0 11-8 11-19 0-17-5-24-53-27-35-2-43-6-43-19v-96c0-16-8-17-22-17s-22 1-22 17v96c0 13-8 17-43 19-48 3-53 10-53 27m76 305c0 6 50 30 60 30s60-24 60-30c0-8-48-38-60-38s-60 30-60 38m27-610c0 11 7 18 16 26 11-8 16-14 16-27 0-9-6-15-15-15-10 0-17 6-17 16m46 760c19 30 47 56 84 56 29 0 58-5 87-14 27-9 61-16 92-16 33 0 60 6 82 22l1-1c-1-6-11-18-16-22l1-2c13 0 29 1 38 3l1-2c-23-18-59-36-103-36-29 0-54 6-80 16s-50 18-84 18c-24 0-42-6-60-25-15 3-25 3-43 3m43-674c103 100 134 189 134 338h5c11-38 15-69 15-116 0-97-43-172-123-257-11 16-19 24-31 35m14-86c0 10 6 18 17 27 9-10 13-16 13-27 0-8-5-16-15-16-9 0-15 7-15 16m36 621c0 4 5 14 48 54l3-1c-7-23-9-46-11-69-24 5-40 10-40 16" style="stroke:none;fill-rule:nonzero;fill:#000;fill-opacity:1"/></svg>

<?xml version="1.0" encoding="UTF-8"?>
<!--
	(c) 2010 Alexey Kryukov

    This work is free; you can redistribute it and/or modify
    it under the terms of the GNU General Public License as published by
    the Free Software Foundation; either version 2 of the License, or
    (at your option) any later version.

    This work is distributed in the hope that it will be useful,
    but WITHOUT ANY WARRANTY; without even the implied warranty of
    MERCHANTABILITY or FITNESS FOR A PARTICULAR PURPOSE.  See the
    GNU General Public License for more details.

    You should have received a copy of the GNU General Public License
    along with this program; if not, write to the Free Software
    Foundation, Inc., 51 Franklin Street, Fifth Floor, Boston, MA 02110-1301 USA
-->
<svg xmlns="http://www.w3.org/2000/svg" xmlns:xlink="http://www.w3.org/1999/xlink" width="1000pt" height="1000pt" viewBox="0 0 1000 1000" version="1.1">
<g id="surface0">
<path style="stroke-width:2;stroke-linecap:butt;stroke-linejoin:miter;stroke:white;stroke-opacity:1;stroke-miterlimit:10;fill-rule:nonzero;fill:white;fill-opacity:1;" d="M 62 910 C 100 868 154 820 220 820 C 252 820 291 828 312 836 C 334 844 370 854 387 854 C 404 854 412 851 420 842 L 420 838 C 383 828 349 814 314 786 C 326 751 334 722 334 681 C 334 658 324 634 306 600 C 288 566 270 505 270 454 C 270 282 423 158 467 124 C 451 110 449 94 449 87 C 449 68 460 52 485 52 C 508 52 518 69 518 83 C 518 100 510 113 498 122 C 513 134 532 150 545 162 C 558 150 566 140 576 127 C 565 118 552 105 552 87 C 552 68 565 52 585 52 C 607 52 618 68 618 82 C 618 100 607 113 598 123 C 650 174 734 269 734 401 C 734 465 717 520 695 576 C 682 610 670 645 670 681 C 670 718 676 749 686 786 C 660 810 632 825 578 837 L 578 840 C 588 850 601 854 616 854 C 646 854 663 850 688 840 C 722 826 754 820 780 820 C 854 820 912 871 936 900 L 930 909 C 914 898 897 890 872 886 L 870 889 C 887 903 899 926 906 940 L 897 948 C 868 916 840 886 774 886 C 744 886 713 894 681 903 C 652 911 633 916 600 916 C 553 916 523 889 500 854 L 496 854 C 477 886 450 916 412 916 C 380 916 356 912 328 903 C 307 896 271 884 238 884 C 178 884 150 908 110 948 L 103 942 C 112 922 118 911 133 893 L 130 890 C 113 895 93 902 71 919 L 62,910"/>
<path style="stroke:none;fill-rule:nonzero;fill:black;fill-opacity:1;" d="M 62 910 C 100 868 154 820 220 820 C 252 820 291 828 312 836 C 334 844 370 854 387 854 C 404 854 412 851 420 842 L 420 838 C 383 828 349 814 314 786 C 326 751 334 722 334 681 C 334 658 324 634 306 600 C 288 566 270 505 270 454 C 270 282 423 158 467 124 C 451 110 449 94 449 87 C 449 68 460 52 485 52 C 508 52 518 69 518 83 C 518 100 510 113 498 122 C 513 134 532 150 545 162 C 558 150 566 140 576 127 C 565 118 552 105 552 87 C 552 68 565 52 585 52 C 607 52 618 68 618 82 C 618 100 607 113 598 123 C 650 174 734 269 734 401 C 734 465 717 520 695 576 C 682 610 670 645 670 681 C 670 718 676 749 686 786 C 660 810 632 825 578 837 L 578 840 C 588 850 601 854 616 854 C 646 854 663 850 688 840 C 722 826 754 820 780 820 C 854 820 912 871 936 900 L 930 909 C 914 898 897 890 872 886 L 870 889 C 887 903 899 926 906 940 L 897 948 C 868 916 840 886 774 886 C 744 886 713 894 681 903 C 652 911 633 916 600 916 C 553 916 523 889 500 854 L 496 854 C 477 886 450 916 412 916 C 380 916 356 912 328 903 C 307 896 271 884 238 884 C 178 884 150 908 110 948 L 103 942 C 112 922 118 911 133 893 L 130 890 C 113 895 93 902 71 919 L 62,910 M 119 875 L 121 879 C 132 874 144 872 156 872 L 158 876 C 152 882 143 892 139 899 L 143 902 C 176 878 206 870 236 870 C 270 870 301 878 326 886 C 351 894 380 902 412 902 C 444 902 464 878 482 847 C 466 847 452 845 438 843 C 426 859 418 868 390 868 C 366 868 334 858 306 849 C 280 840 242 834 220 834 C 177 834 147 853 119 875 M 294 458 C 294 527 315 576 340 625 C 394 603 455 596 500 596 C 565 596 600 605 659 621 C 666 589 670 536 670 507 C 670 342 620 243 482 136 C 376 229 294 310 294 458 M 338 781 C 374 809 434 828 500 828 C 566 828 626 809 662 781 C 618 757 562 739 500 739 C 438 739 382 757 338 781 M 343 760 L 346 761 C 389 721 394 711 394 707 C 394 701 378 696 354 691 C 352 714 350 737 343 760 M 347 646 C 350 656 352 666 352 678 C 404 656 441 648 500 648 C 559 648 596 656 648 678 C 648 666 650 656 653 646 C 594 626 560 620 500 620 C 440 620 406 626 347 646 M 348 408 L 348 377 C 348 362 355 352 406 348 C 444 345 444 344 444 329 L 444 240 C 444 231 448 220 463 220 L 501 220 C 516 220 520 231 520 240 L 520 329 C 520 344 520 345 558 348 C 609 352 616 362 616 377 L 616 408 C 616 416 611 428 597 428 C 591 428 574 427 559 424 C 545 421 536 420 526 420 C 520 420 520 424 520 430 L 520 537 C 520 544 516 556 505 556 L 459 556 C 448 556 444 544 444 537 L 444 430 C 444 424 444 420 438 420 C 428 420 419 421 405 424 C 390 427 373 428 367 428 C 353 428 348 416 348 408 M 364 391 C 364 402 365 410 375 410 C 381 410 392 409 407 406 C 421 403 437 401 445 401 C 457 401 460 409 460 418 L 460 529 C 460 541 462 544 482 544 C 502 544 504 541 504 529 L 504 418 C 504 409 507 401 519 401 C 527 401 543 403 557 406 C 572 409 583 410 589 410 C 599 410 600 402 600 391 C 600 374 595 367 547 364 C 512 362 504 358 504 345 L 504 249 C 504 233 496 232 482 232 C 468 232 460 233 460 249 L 460 345 C 460 358 452 362 417 364 C 369 367 364 374 364 391 M 440 696 C 440 702 490 726 500 726 C 510 726 560 702 560 696 C 560 688 512 658 500 658 C 488 658 440 688 440 696 M 467 86 C 467 97 474 104 483 112 C 494 104 499 98 499 85 C 499 76 493 70 484 70 C 474 70 467 76 467 86 M 513 846 C 532 876 560 902 597 902 C 626 902 655 897 684 888 C 711 879 745 872 776 872 C 809 872 836 878 858 894 L 859 893 C 858 887 848 875 843 871 L 844 869 C 857 869 873 870 882 872 L 883 870 C 860 852 824 834 780 834 C 751 834 726 840 700 850 C 674 860 650 868 616 868 C 592 868 574 862 556 843 C 541 846 531 846 513 846 M 556 172 C 659 272 690 361 690 510 L 695 510 C 706 472 710 441 710 394 C 710 297 667 222 587 137 C 576 153 568 161 556 172 M 570 86 C 570 96 576 104 587 113 C 596 103 600 97 600 86 C 600 78 595 70 585 70 C 576 70 570 77 570 86 M 606 707 C 606 711 611 721 654 761 L 657 760 C 650 737 648 714 646 691 C 622 696 606 701 606 707"/>
</g>
</svg>
